SVG_Azure_Grouped/Application/Mesh Application.svg

<?xml version="1.0" encoding="UTF-8" standalone="no"?>
<!-- Generated by Microsoft Visio, SVG Export Mesh Application.svg Page-1 -->

<svg
   xmlns:dc="http://purl.org/dc/elements/1.1/"
   xmlns:cc="http://creativecommons.org/ns#"
   xmlns:rdf="http://www.w3.org/1999/02/22-rdf-syntax-ns#"
   xmlns:svg="http://www.w3.org/2000/svg"
   xmlns="http://www.w3.org/2000/svg"
   xmlns:sodipodi="http://sodipodi.sourceforge.net/DTD/sodipodi-0.dtd"
   xmlns:inkscape="http://www.inkscape.org/namespaces/inkscape"
   width="0.81347662in"
   height="0.81347662in"
   viewBox="0 0 58.570277 58.570277"
   xml:space="preserve"
   class="st5"
   version="1.1"
   id="svg108"
   sodipodi:docname="Mesh Application.svg"
   style="font-size:12px;overflow:visible;color-interpolation-filters:sRGB;fill:none;fill-rule:evenodd;stroke-linecap:square;stroke-miterlimit:3"
   inkscape:version="0.92.5 (2060ec1f9f, 2020-04-08)"><metadata
   id="metadata112"><rdf:RDF><cc:Work
       rdf:about=""><dc:format>image/svg+xml</dc:format><dc:type
         rdf:resource="http://purl.org/dc/dcmitype/StillImage" /></cc:Work></rdf:RDF></metadata><sodipodi:namedview
   pagecolor="#ffffff"
   bordercolor="#666666"
   borderopacity="1"
   objecttolerance="10"
   gridtolerance="10"
   guidetolerance="10"
   inkscape:pageopacity="0"
   inkscape:pageshadow="2"
   inkscape:window-width="640"
   inkscape:window-height="480"
   id="namedview110"
   showgrid="false"
   inkscape:zoom="1.4151613"
   inkscape:cx="39.04403"
   inkscape:cy="39.048261"
   inkscape:window-x="0"
   inkscape:window-y="0"
   inkscape:window-maximized="0"
   inkscape:current-layer="svg108" />
	<style
   type="text/css"
   id="style2">
	<![CDATA[
		.st1 {fill:#e27908;stroke:none;stroke-linecap:butt;stroke-width:33.254}
		.st2 {fill:#f78d1e;stroke:none;stroke-linecap:butt;stroke-width:33.254}
		.st3 {fill:url(#grad0-32);stroke:none;stroke-linecap:butt;stroke-width:33.254}
		.st4 {fill:url(#grad0-36);stroke:none;stroke-linecap:butt;stroke-width:33.254}
		.st5 {fill:none;fill-rule:evenodd;font-size:12px;overflow:visible;stroke-linecap:square;stroke-miterlimit:3}
	]]>
	</style>

	<defs
   id="Patterns_And_Gradients">
		<linearGradient
   id="grad0-32"
   x1="-9.6457333e-07"
   y1="244.29387"
   x2="27.370244"
   y2="244.29387"
   gradientTransform="scale(2.1399253,0.46730602)"
   gradientUnits="userSpaceOnUse">
			<stop
   offset="0"
   stop-color="#e26708"
   stop-opacity="1"
   id="stop4" />
			<stop
   offset="1"
   stop-color="#f78d1e"
   stop-opacity="1"
   id="stop6" />
		</linearGradient>
		<linearGradient
   id="grad0-36"
   x1="-4.4170518e-06"
   y1="31.954385"
   x2="27.37024"
   y2="31.954385"
   gradientTransform="scale(0.46730602,2.1399253)"
   gradientUnits="userSpaceOnUse">
			<stop
   offset="0"
   stop-color="#e26708"
   stop-opacity="1"
   id="stop9" />
			<stop
   offset="0.005"
   stop-color="#e26808"
   stop-opacity="1"
   id="stop11" />
			<stop
   offset="0.115"
   stop-color="#ec7912"
   stop-opacity="1"
   id="stop13" />
			<stop
   offset="0.255"
   stop-color="#f28419"
   stop-opacity="1"
   id="stop15" />
			<stop
   offset="0.455"
   stop-color="#f68b1d"
   stop-opacity="1"
   id="stop17" />
			<stop
   offset="1"
   stop-color="#f78d1e"
   stop-opacity="1"
   id="stop19" />
		</linearGradient>
	</defs>
	<g
   id="g106"
   transform="translate(-33.253998,-33.252898)">
		<title
   id="title23">Page-1</title>
		<g
   id="group13795-1"
   transform="translate(33.254,-35.1271)">
			<title
   id="title25">Mesh Application.13795</title>
			<g
   id="shape13796-2"
   transform="translate(18.1757,-16.3026)">
				<title
   id="title27">path22</title>
				<path
   d="m 11.11,116.32 -8.42,8.42 c 0,-0.68 -0.67,-1.35 -1.01,-2.02 -0.33,-0.68 -0.67,-0.68 -1.01,-0.68 L 8.75,113.97 0,105.22 a 4.08616,4.08616 -180 0 0 2.36,-2.36 l 8.75,8.75 8.75,-8.75 c 0.34,0.67 0.34,1.01 1.01,1.35 a 4.64489,4.64489 0 0 1 1.34,1.01 l -8.75,8.75 8.42,8.41 a 2.9283,2.9283 -180 0 0 -2.02,2.69 z"
   class="st1"
   id="path29"
   inkscape:connector-curvature="0"
   style="fill:#e27908;stroke:none;stroke-width:33.25400162;stroke-linecap:butt" />
			</g>
			<g
   id="group13797-4"
   transform="translate(6.39514,-4.52205)">
				<title
   id="title32">g40</title>
				<g
   id="shape13798-5"
   transform="translate(11.1073)">
					<title
   id="title34">path24</title>
					<path
   d="m 0,117.67 7.4,7.4 v -0.33 a 5.42577,5.42577 0 0 1 1.69,-3.7 L 3.03,114.98 A 3.56781,3.56781 0 0 1 0,117.67 Z"
   class="st1"
   id="path36"
   inkscape:connector-curvature="0"
   style="fill:#e27908;stroke:none;stroke-width:33.25400162;stroke-linecap:butt" />
				</g>
				<g
   id="shape13799-7"
   transform="translate(0,-11.4439)">
					<title
   id="title39">path26</title>
					<path
   d="m 0,117.67 7.07,7.4 a 3.36586,3.36586 0 0 1 2.35,-3.03 L 3.7,115.99 A 5.42577,5.42577 0 0 1 0,117.67 Z"
   class="st1"
   id="path41"
   inkscape:connector-curvature="0"
   style="fill:#e27908;stroke:none;stroke-width:33.25400162;stroke-linecap:butt" />
				</g>
				<g
   id="shape13800-9"
   transform="translate(1.00976,-25.9171)">
					<title
   id="title44">path28</title>
					<path
   d="M 6.06,116.66 0,122.72 a 4.88387,4.88387 0 0 1 3.37,2.35 l 5.72,-5.72 -2.02,-1.01 C 6.73,117.67 6.4,117.33 6.06,116.66 Z"
   class="st1"
   id="path46"
   inkscape:connector-curvature="0"
   style="fill:#e27908;stroke:none;stroke-width:33.25400162;stroke-linecap:butt" />
				</g>
				<g
   id="shape13801-11"
   transform="translate(11.4439,-36.0147)">
					<title
   id="title49">path30</title>
					<path
   d="M 7.07,115.31 0,122.38 a 3.67216,3.67216 0 0 1 2.69,2.69 l 6.06,-6.05 a 4.81318,4.81318 0 0 1 -1.68,-3.71 z"
   class="st1"
   id="path51"
   inkscape:connector-curvature="0"
   style="fill:#e27908;stroke:none;stroke-width:33.25400162;stroke-linecap:butt" />
				</g>
				<g
   id="shape13802-13"
   transform="translate(25.9171,-36.0147)">
					<title
   id="title54">path32</title>
					<path
   d="M 8.75,122.38 2.02,115.65 A 4.47323,4.47323 0 0 1 0,119.02 l 6.06,6.05 a 3.67216,3.67216 0 0 1 2.69,-2.69 z"
   class="st1"
   id="path56"
   inkscape:connector-curvature="0"
   style="fill:#e27908;stroke:none;stroke-width:33.25400162;stroke-linecap:butt" />
				</g>
				<g
   id="shape13803-15"
   transform="translate(36.3513,-25.5806)">
					<title
   id="title59">path34</title>
					<path
   d="m 9.09,122.72 -6.4,-6.4 A 3.67216,3.67216 0 0 1 0,119.02 l 6.06,6.05 a 3.73947,3.73947 0 0 1 3.03,-2.35 z"
   class="st1"
   id="path61"
   inkscape:connector-curvature="0"
   style="fill:#e27908;stroke:none;stroke-width:33.25400162;stroke-linecap:butt" />
				</g>
				<g
   id="shape13804-17"
   transform="translate(36.6879,-11.1073)">
					<title
   id="title64">path36</title>
					<path
   d="M 5.72,115.99 0,121.71 c 0.67,0.33 1.01,0.33 1.35,1.01 a 3.0562,3.0562 0 0 1 1.01,2.35 l 7.06,-7.06 a 6.73173,6.73172 0 0 1 -3.7,-2.02 z"
   class="st1"
   id="path66"
   inkscape:connector-curvature="0"
   style="fill:#e27908;stroke:none;stroke-width:33.25400162;stroke-linecap:butt" />
				</g>
				<g
   id="shape13805-19"
   transform="translate(26.2537,-0.336586)">
					<title
   id="title69">path38</title>
					<path
   d="m 5.72,115.65 -5.72,5.72 0.34,0.34 a 4.3083,4.3083 0 0 1 1.34,3.36 l 7.07,-7.06 A 3.0562,3.0562 0 0 1 6.4,117 2.56479,2.56479 0 0 1 5.72,115.65 Z"
   class="st1"
   id="path71"
   inkscape:connector-curvature="0"
   style="fill:#e27908;stroke:none;stroke-width:33.25400162;stroke-linecap:butt" />
				</g>
			</g>
			<g
   id="shape13806-21"
   transform="translate(12.1171,-34.4782)">
				<title
   id="title75">circle42</title>
				<circle
   cx="5.04879"
   cy="120.025"
   class="st2"
   id="ellipse77"
   r="5.04879"
   style="fill:#f78d1e;stroke:none;stroke-width:33.25400162;stroke-linecap:butt" />
			</g>
			<g
   id="shape13807-23"
   transform="translate(36.3513,-34.4782)">
				<title
   id="title80">circle44</title>
				<circle
   cx="5.04879"
   cy="120.025"
   class="st2"
   id="ellipse82"
   r="5.04879"
   style="fill:#f78d1e;stroke:none;stroke-width:33.25400162;stroke-linecap:butt" />
			</g>
			<g
   id="shape13808-25"
   transform="translate(12.1171,-10.244)">
				<title
   id="title85">circle46</title>
				<circle
   cx="5.04879"
   cy="120.025"
   class="st2"
   id="ellipse87"
   r="5.04879"
   style="fill:#f78d1e;stroke:none;stroke-width:33.25400162;stroke-linecap:butt" />
			</g>
			<g
   id="shape13809-27"
   transform="translate(36.3513,-10.244)">
				<title
   id="title90">circle48</title>
				<circle
   cx="5.04879"
   cy="120.025"
   class="st2"
   id="ellipse92"
   r="5.04879"
   style="fill:#f78d1e;stroke:none;stroke-width:33.25400162;stroke-linecap:butt" />
			</g>
			<g
   id="shape13810-29"
   transform="translate(0,-22.8879)">
				<title
   id="title95">path50</title>
				<path
   d="m 6.4,114.16 a 6.39514,6.39514 0 1 1 -6.4,6.39 6.39514,6.39514 0 0 1 6.4,-6.39 z m 45.77,0 a 6.39514,6.39514 0 1 1 -6.39,6.39 6.39514,6.39514 0 0 1 6.39,-6.39 z"
   class="st3"
   id="path97"
   inkscape:connector-curvature="0"
   style="fill:url(#grad0-32);stroke:none;stroke-width:33.25400162;stroke-linecap:butt" />
			</g>
			<g
   id="shape13811-33"
   transform="translate(22.8879)">
				<title
   id="title100">path52</title>
				<path
   d="m 6.4,68.38 a 6.39514,6.39514 0 1 1 -6.4,6.4 6.39514,6.39514 0 0 1 6.4,-6.4 z m 0,45.78 a 6.39514,6.39514 0 1 1 -6.4,6.39 6.39514,6.39514 0 0 1 6.4,-6.39 z"
   class="st4"
   id="path102"
   inkscape:connector-curvature="0"
   style="fill:url(#grad0-36);stroke:none;stroke-width:33.25400162;stroke-linecap:butt" />
			</g>
		</g>
	</g>
</svg>

<?xml version="1.0" encoding="UTF-8" standalone="no"?>
<!DOCTYPE svg PUBLIC "-//W3C//DTD SVG 1.1//EN" "http://www.w3.org/Graphics/SVG/1.1/DTD/svg11.dtd">
<!-- Generated by Microsoft Visio, SVG Export Mesh Application.svg Page-1 -->
<svg xmlns="http://www.w3.org/2000/svg" xmlns:xlink="http://www.w3.org/1999/xlink" xmlns:ev="http://www.w3.org/2001/xml-events"
		width="1.73714in" height="1.73714in" viewBox="0 0 125.074 125.074" xml:space="preserve" color-interpolation-filters="sRGB"
		class="st5">
	<style type="text/css">
	<![CDATA[
		.st1 {fill:#e27908;stroke:none;stroke-linecap:butt;stroke-width:33.254}
		.st2 {fill:#f78d1e;stroke:none;stroke-linecap:butt;stroke-width:33.254}
		.st3 {fill:url(#grad0-32);stroke:none;stroke-linecap:butt;stroke-width:33.254}
		.st4 {fill:url(#grad0-36);stroke:none;stroke-linecap:butt;stroke-width:33.254}
		.st5 {fill:none;fill-rule:evenodd;font-size:12px;overflow:visible;stroke-linecap:square;stroke-miterlimit:3}
	]]>
	</style>

	<defs id="Patterns_And_Gradients">
		<linearGradient id="grad0-32" x1="0" y1="0" x2="1" y2="0" gradientTransform="rotate(-90 0.5 0.5)">
			<stop offset="0" stop-color="#e26708" stop-opacity="1"/>
			<stop offset="1" stop-color="#f78d1e" stop-opacity="1"/>
		</linearGradient>
		<linearGradient id="grad0-36" x1="0" y1="0" x2="1" y2="0" gradientTransform="rotate(-90 0.5 0.5)">
			<stop offset="0" stop-color="#e26708" stop-opacity="1"/>
			<stop offset="0.005" stop-color="#e26808" stop-opacity="1"/>
			<stop offset="0.115" stop-color="#ec7912" stop-opacity="1"/>
			<stop offset="0.255" stop-color="#f28419" stop-opacity="1"/>
			<stop offset="0.455" stop-color="#f68b1d" stop-opacity="1"/>
			<stop offset="1" stop-color="#f78d1e" stop-opacity="1"/>
		</linearGradient>
	</defs>
	<g>
		<title>Page-1</title>
		<g id="group13448-1" transform="translate(33.254,-35.1271)">
			<title>Mesh Application.13448</title>
			<g id="shape13449-2" transform="translate(18.1757,-16.3026)">
				<title>path22</title>
				<path d="M11.11 116.32 L2.69 124.74 C2.69 124.06 2.02 123.39 1.68 122.72 C1.35 122.04 1.01 122.04 0.67 122.04 L8.75
							 113.97 L0 105.22 A4.08616 4.08616 -180 0 0 2.36 102.86 L11.11 111.61 L19.86 102.86 C20.2 103.53 20.2
							 103.87 20.87 104.21 A4.64489 4.64489 0 0 1 22.21 105.22 L13.46 113.97 L21.88 122.38 A2.9283 2.9283 -180
							 0 0 19.86 125.07 L11.11 116.32 Z" class="st1"/>
			</g>
			<g id="group13450-4" transform="translate(6.39514,-4.52205)">
				<title>g40</title>
				<g id="shape13451-5" transform="translate(11.1073,1.42109E-14)">
					<title>path24</title>
					<path d="M0 117.67 L7.4 125.07 L7.4 124.74 A5.42577 5.42577 0 0 1 9.09 121.04 L3.03 114.98 A3.56781 3.56781 0
								 0 1 0 117.67 Z" class="st1"/>
				</g>
				<g id="shape13452-7" transform="translate(0,-11.4439)">
					<title>path26</title>
					<path d="M0 117.67 L7.07 125.07 A3.36586 3.36586 0 0 1 9.42 122.04 L3.7 115.99 A5.42577 5.42577 0 0 1 0 117.67
								 Z" class="st1"/>
				</g>
				<g id="shape13453-9" transform="translate(1.00976,-25.9171)">
					<title>path28</title>
					<path d="M6.06 116.66 L0 122.72 A4.88387 4.88387 0 0 1 3.37 125.07 L9.09 119.35 L7.07 118.34 C6.73 117.67 6.4
								 117.33 6.06 116.66 Z" class="st1"/>
				</g>
				<g id="shape13454-11" transform="translate(11.4439,-36.0147)">
					<title>path30</title>
					<path d="M7.07 115.31 L0 122.38 A3.67216 3.67216 0 0 1 2.69 125.07 L8.75 119.02 A4.81318 4.81318 0 0 1 7.07 115.31
								 Z" class="st1"/>
				</g>
				<g id="shape13455-13" transform="translate(25.9171,-36.0147)">
					<title>path32</title>
					<path d="M8.75 122.38 L2.02 115.65 A4.47323 4.47323 0 0 1 -0 119.02 L6.06 125.07 A3.67216 3.67216 0 0 1 8.75
								 122.38 Z" class="st1"/>
				</g>
				<g id="shape13456-15" transform="translate(36.3513,-25.5806)">
					<title>path34</title>
					<path d="M9.09 122.72 L2.69 116.32 A3.67216 3.67216 0 0 1 0 119.02 L6.06 125.07 A3.73947 3.73947 0 0 1 9.09 122.72
								 Z" class="st1"/>
				</g>
				<g id="shape13457-17" transform="translate(36.6879,-11.1073)">
					<title>path36</title>
					<path d="M5.72 115.99 L0 121.71 C0.67 122.04 1.01 122.04 1.35 122.72 A3.0562 3.0562 0 0 1 2.36 125.07 L9.42 118.01
								 A6.73173 6.73172 0 0 1 5.72 115.99 Z" class="st1"/>
				</g>
				<g id="shape13458-19" transform="translate(26.2537,-0.336586)">
					<title>path38</title>
					<path d="M5.72 115.65 L0 121.37 L0.34 121.71 A4.3083 4.3083 0 0 1 1.68 125.07 L8.75 118.01 A3.0562 3.0562 0 0
								 1 6.4 117 A2.56479 2.56479 0 0 1 5.72 115.65 Z" class="st1"/>
				</g>
			</g>
			<g id="shape13459-21" transform="translate(12.1171,-34.4782)">
				<title>circle42</title>
				<ellipse cx="5.04879" cy="120.025" rx="5.04879" ry="5.04879" class="st2"/>
			</g>
			<g id="shape13460-23" transform="translate(36.3513,-34.4782)">
				<title>circle44</title>
				<ellipse cx="5.04879" cy="120.025" rx="5.04879" ry="5.04879" class="st2"/>
			</g>
			<g id="shape13461-25" transform="translate(12.1171,-10.244)">
				<title>circle46</title>
				<ellipse cx="5.04879" cy="120.025" rx="5.04879" ry="5.04879" class="st2"/>
			</g>
			<g id="shape13462-27" transform="translate(36.3513,-10.244)">
				<title>circle48</title>
				<ellipse cx="5.04879" cy="120.025" rx="5.04879" ry="5.04879" class="st2"/>
			</g>
			<g id="shape13463-29" transform="translate(0,-22.8879)">
				<title>path50</title>
				<path d="M6.4 114.16 A6.39514 6.39514 0 1 1 0 120.55 A6.39514 6.39514 0 0 1 6.4 114.16 ZM52.17 114.16 A6.39514 6.39514
							 0 1 1 45.78 120.55 A6.39514 6.39514 0 0 1 52.17 114.16 Z" class="st3"/>
			</g>
			<g id="shape13464-33" transform="translate(22.8879,1.42109E-14)">
				<title>path52</title>
				<path d="M6.4 68.38 A6.39514 6.39514 0 1 1 -0 74.78 A6.39514 6.39514 0 0 1 6.4 68.38 ZM6.4 114.16 A6.39514 6.39514
							 0 1 1 0 120.55 A6.39514 6.39514 0 0 1 6.4 114.16 Z" class="st4"/>
			</g>
		</g>
	</g>
</svg>
